app/images/icons/customer-setup-icon.svg

<?xml version="1.0" encoding="UTF-8" standalone="no"?>
<svg width="74px" height="76px" viewBox="0 0 74 76" version="1.1" xmlns="http://www.w3.org/2000/svg" xmlns:xlink="http://www.w3.org/1999/xlink" xmlns:sketch="http://www.bohemiancoding.com/sketch/ns">
    <!-- Generator: Sketch 3.1 (8751) - http://www.bohemiancoding.com/sketch -->
    <title>customer-setup-icon</title>
    <desc>Created with Sketch.</desc>
    <defs></defs>
    <g id="Page-1" stroke="none" stroke-width="1" fill="none" fill-rule="evenodd" sketch:type="MSPage">
        <g id="customer-setup-icon" sketch:type="MSLayerGroup" fill="#1B1A19">
            <path d="M17.056386,20.4300667 C17.056386,20.026 17.0845614,19.6194 17.107614,19.2140667 C18.7161754,19.8094 20.3823684,20.102 22.2355439,20.102 C26.7474561,20.102 31.7024912,17.9094 34.3330526,14.9580667 C36.8944561,18.6314 39.9169123,20.368 43.7884737,20.368 C44.7105789,20.368 45.6711053,20.2666667 46.6956667,20.0766667 L46.7725088,20.0766667 C46.7725088,20.1894 46.7853158,20.3034 46.7853158,20.4300667 C46.7853158,30.2974 40.1218246,38.3280667 31.9240526,38.3280667 C23.7262807,38.3280667 17.056386,30.2974 17.056386,20.4300667 L17.056386,20.4300667 Z M31.9240526,2.53206667 C39.3034561,2.53206667 45.4277719,9.044 46.5804035,17.5420667 C46.4651404,17.5547333 46.3498772,17.5674 46.209,17.594 C41.3551404,18.5174 38.350614,16.9594 35.5087368,12.0447333 L34.3458596,10.0307333 L33.2611053,12.084 C31.7204211,14.9960667 26.5681579,17.5674 22.2355439,17.5674 C20.4707368,17.5674 18.9172456,17.2380667 17.4098596,16.5920667 C18.8737018,8.5614 24.8212807,2.53206667 31.9240526,2.53206667 L31.9240526,2.53206667 Z M49.3467193,20.4300667 C49.3467193,9.158 41.5344386,0 31.9240526,0 C22.3136667,0 14.4949825,9.158 14.4949825,20.4300667 C14.4949825,27.892 17.9400702,34.4140667 23.0526316,37.9860667 L23.0526316,44.7120667 L7.27822807,50.502 C2.92512281,52.0460667 0,56.1500667 0,60.7227333 L0,70.9320667 L35.8596491,70.9320667 L35.8596491,68.4 L2.56140351,68.4 L2.56140351,60.7227333 C2.56140351,57.2140667 4.80391228,54.0727333 8.15422807,52.8820667 L25.6140351,46.4727333 L25.6140351,39.4554 C27.5735088,40.3547333 29.6969123,40.8614 31.9240526,40.8614 C34.2216316,40.8614 36.4116316,40.3294 38.4210526,39.368 L38.4210526,45.6 L40.9824561,45.6 L40.9824561,37.8467333 C45.9912807,34.2620667 49.3467193,27.8033333 49.3467193,20.4300667 L49.3467193,20.4300667 Z" id="Fill-1632" sketch:type="MSShapeGroup"></path>
            <path d="M58.6305263,64.0426667 C56.6582456,64.0426667 55.0701754,62.4580667 55.0701754,60.5200667 C55.0701754,58.5820667 56.6582456,56.9987333 58.6305263,56.9987333 C60.59,56.9987333 62.1908772,58.5820667 62.1908772,60.5200667 C62.1908772,62.4580667 60.59,64.0426667 58.6305263,64.0426667 L58.6305263,64.0426667 Z M58.6305263,54.4666667 C55.2494737,54.4666667 52.5087719,57.1760667 52.5087719,60.5200667 C52.5087719,63.8653333 55.2494737,66.576 58.6305263,66.576 C62.0115789,66.576 64.7522807,63.8653333 64.7522807,60.5200667 C64.7522807,57.1760667 62.0115789,54.4666667 58.6305263,54.4666667 L58.6305263,54.4666667 Z" id="Fill-1633" sketch:type="MSShapeGroup"></path>
            <path d="M68.1599637,56.2906667 C67.673297,56.5693333 67.4171567,57.1406 67.5580339,57.684 C67.7373321,58.4693333 67.8269812,59.242 67.8269812,59.9766667 C67.8269812,60.6353333 67.7373321,61.3712667 67.5196128,62.2693333 C67.3915427,62.8152667 67.634876,63.3713333 68.1215427,63.6639333 L70.1834725,64.8533333 L68.1727707,68.2226667 L65.9187356,66.9826 C65.432069,66.7153333 64.8301391,66.7913333 64.4203146,67.1713333 C63.4597883,68.0719333 61.8461041,68.9459333 60.1171567,69.4766667 C59.5792619,69.6552667 59.2206655,70.1353333 59.2206655,70.6926667 L59.2206655,73.0879333 L55.3273321,73.0879333 L55.3273321,70.6926667 C55.3273321,70.1353333 54.9559286,69.6552667 54.4308409,69.4766667 C53.1117181,69.0713333 51.8822444,68.3113333 50.6655777,67.1713333 C50.2301391,66.7799333 49.5897883,66.7153333 49.1031216,67.0193333 L47.2845251,68.1593333 L45.3506655,64.8533333 L47.4510163,63.6639333 C47.937683,63.384 48.1938234,62.8152667 48.0529462,62.2693333 C47.8608409,61.4586667 47.7711918,60.6986667 47.7711918,59.9766667 C47.7711918,59.1799333 47.8608409,58.4186667 48.0401391,57.684 C48.1682093,57.1406 47.924876,56.5693333 47.4254023,56.2906667 L45.2866304,55.0873333 L47.1692619,51.7826 L49.1287356,52.9479333 C49.6154023,53.2392667 50.2557532,53.1746667 50.6655777,52.782 C51.8822444,51.642 53.1117181,50.882 54.4308409,50.4766667 C54.9559286,50.3132667 55.3273321,49.818 55.3273321,49.2746 L55.3273321,46.8666667 L59.2206655,46.8666667 L59.2206655,49.2606667 C59.2206655,49.818 59.5792619,50.3132667 60.1171567,50.4766667 C61.8461041,51.0213333 63.4597883,51.8826667 64.4203146,52.782 C64.8173321,53.1493333 65.4192619,53.2392667 65.9059286,52.9846667 L68.2880339,51.718 L70.2603146,55.0873333 L68.1599637,56.2906667 L68.1599637,56.2906667 Z M73.2443497,55.8853333 C73.3339988,55.5572667 73.2955777,55.2152667 73.1162795,54.9226667 L69.8889111,49.3873333 C69.5431216,48.8046667 68.7875076,48.5766667 68.1855777,48.9072667 L65.47049,50.3373333 C64.2282093,49.3873333 62.7938234,48.7552667 61.782069,48.374 L61.782069,45.6 C61.782069,44.9033333 61.2057532,44.3333333 60.5013672,44.3333333 L54.0466304,44.3333333 C53.3422444,44.3333333 52.7659286,44.9033333 52.7659286,45.6 L52.7659286,48.3879333 C51.6773321,48.8312667 50.6399637,49.4633333 49.6410163,50.2993333 L47.3741742,48.944 C47.0668058,48.7666667 46.7210163,48.716 46.3752269,48.792 C46.0422444,48.8806667 45.76049,49.0972667 45.5939988,49.4 L42.4293848,54.9353333 C42.0823146,55.5433333 42.2961918,56.316 42.9083672,56.658 L45.3634725,58.0386667 C45.2610163,58.6732667 45.2097883,59.318 45.2097883,59.9766667 C45.2097883,60.61 45.2610163,61.2572667 45.3762795,61.9273333 L42.9647181,63.2953333 C42.3538234,63.65 42.1437883,64.4226667 42.4972619,65.0306667 L45.722069,70.566 C45.9013672,70.8573333 46.1959286,71.0726667 46.5289111,71.1613333 C46.8618935,71.25 47.22049,71.1879333 47.5150514,70.9979333 L49.6538234,69.6666667 C50.6527707,70.5026667 51.6773321,71.1246 52.7659286,71.5666667 L52.7659286,74.3533333 C52.7659286,75.05 53.3422444,75.6212667 54.0466304,75.6212667 L60.5013672,75.6212667 C61.2057532,75.6212667 61.782069,75.05 61.782069,74.3533333 L61.782069,71.592 C62.7938234,71.2132667 64.2154023,70.566 65.457683,69.6299333 L68.0318935,71.0346667 C68.6338234,71.3652667 69.4022444,71.1613333 69.7480339,70.5799333 L73.0522444,65.0433333 C73.2187356,64.752 73.2699637,64.3986 73.1803146,64.0806667 C73.1034725,63.7513333 72.8857532,63.4726667 72.5911918,63.308 L70.2090865,61.9273333 C70.3371567,61.218 70.3883848,60.5846667 70.3883848,59.9766667 C70.3883848,59.3433333 70.3371567,58.6986 70.2347005,58.0386667 L72.6552269,56.658 C72.9497883,56.4806667 73.1547005,56.2146667 73.2443497,55.8853333 L73.2443497,55.8853333 Z" id="Fill-1634" sketch:type="MSShapeGroup"></path>
        </g>
    </g>
</svg>

<svg width="74" height="76" viewBox="0 0 74 76" xmlns="http://www.w3.org/2000/svg">
    <desc>
        Created with Sketch.
    </desc>
    <g fill="#1B1A19">
        <path d="M17.056 20.43c0-.404.03-.81.052-1.216 1.608.595 3.274.888 5.128.888 4.51 0 9.466-2.193 12.097-5.144 2.56 3.673 5.584 5.41 9.455 5.41.923 0 1.883-.1 2.908-.29h.077c0 .11.012.225.012.352 0 9.867-6.663 17.898-14.86 17.898-8.2 0-14.87-8.03-14.87-17.898zM31.924 2.532c7.38 0 13.504 6.512 14.656 15.01-.115.013-.23.025-.37.052-4.855.923-7.86-.635-10.7-5.55l-1.164-2.013-1.085 2.054c-1.54 2.912-6.692 5.483-11.024 5.483-1.765 0-3.32-.33-4.826-.975 1.464-8.03 7.41-14.06 14.514-14.06zM49.347 20.43C49.347 9.158 41.534 0 31.924 0s-17.43 9.158-17.43 20.43c0 7.462 3.446 13.984 8.56 17.556v6.726l-15.776 5.79C2.925 52.046 0 56.15 0 60.722v10.21h35.86V68.4H2.56v-7.677c0-3.51 2.244-6.65 5.594-7.84l17.46-6.41v-7.018c1.96.9 4.083 1.406 6.31 1.406 2.298 0 4.488-.53 6.497-1.492V45.6h2.562v-7.753c5.01-3.585 8.365-10.044 8.365-17.417z"/>
        <path d="M58.63 64.043c-1.972 0-3.56-1.585-3.56-3.523 0-1.938 1.588-3.52 3.56-3.52 1.96 0 3.56 1.582 3.56 3.52s-1.6 3.523-3.56 3.523zm0-9.576c-3.38 0-6.12 2.71-6.12 6.053 0 3.345 2.74 6.056 6.12 6.056 3.382 0 6.122-2.71 6.122-6.056 0-3.344-2.74-6.053-6.12-6.053z"/>
        <path d="M68.16 56.29c-.487.28-.743.85-.602 1.394.18.785.27 1.558.27 2.293 0 .658-.09 1.394-.308 2.292-.128.545.115 1.1.602 1.394l2.06 1.19-2.01 3.37-2.253-1.24c-.488-.27-1.09-.193-1.5.187-.96.902-2.574 1.776-4.303 2.307-.538.178-.896.658-.896 1.216v2.395h-3.893v-2.395c0-.558-.37-1.038-.896-1.216-1.318-.406-2.548-1.166-3.764-2.306-.436-.39-1.076-.455-1.563-.15l-1.818 1.14-1.934-3.307 2.1-1.19c.488-.28.744-.848.603-1.394-.192-.81-.282-1.57-.282-2.293 0-.797.09-1.558.27-2.293.128-.543-.115-1.115-.615-1.393l-2.138-1.203 1.882-3.304 1.96 1.165c.485.29 1.126.227 1.536-.166 1.216-1.14 2.446-1.9 3.765-2.305.526-.164.897-.66.897-1.202v-2.408h3.894v2.394c0 .558.36 1.053.897 1.217 1.73.544 3.343 1.406 4.303 2.305.397.367 1 .457 1.486.203l2.382-1.267 1.972 3.37-2.1 1.203zm5.084-.405c.09-.328.052-.67-.128-.962l-3.227-5.536c-.347-.582-1.102-.81-1.704-.48l-2.716 1.43c-1.242-.95-2.676-1.582-3.688-1.963V45.6c0-.697-.576-1.267-1.28-1.267h-6.455c-.705 0-1.28.57-1.28 1.267v2.788c-1.09.443-2.127 1.075-3.126 1.91l-2.266-1.354c-.307-.177-.653-.228-1-.152-.332.09-.614.305-.78.608l-3.165 5.535c-.348.608-.134 1.38.478 1.723l2.455 1.38c-.102.635-.153 1.28-.153 1.94 0 .632.05 1.28.166 1.95l-2.41 1.367c-.612.355-.822 1.128-.47 1.736l3.226 5.536c.18.29.474.507.807.595.332.09.69.028.985-.162l2.14-1.33c.998.835 2.022 1.457 3.11 1.9v2.785c0 .697.577 1.268 1.282 1.268H60.5c.706 0 1.282-.57 1.282-1.267v-2.76c1.012-.38 2.433-1.027 3.676-1.963l2.574 1.405c.602.33 1.37.126 1.716-.455l3.304-5.537c.167-.29.218-.644.128-.962-.077-.33-.294-.607-.59-.772l-2.38-1.38c.127-.71.178-1.343.178-1.95 0-.635-.05-1.28-.153-1.94l2.42-1.38c.295-.177.5-.443.59-.773z"/>
    </g>
</svg>
